html/assets/images/dynamic/quote.svg

<svg width="56" height="44" viewBox="0 0 56 44" fill="none" xmlns="http://www.w3.org/2000/svg">
<path d="M11.7551 43.4286C8.27211 43.4286 5.44218 42.2313 3.26531 39.8367C1.08844 37.3333 0 34.1225 0 30.2041C0 23.5646 2.01361 17.5782 6.04082 12.2449C10.068 6.80272 16.2721 2.72109 24.6531 0L26.6122 4.73469C18.1225 7.78231 13.2789 12.8435 12.0816 19.9184C15.4558 20.2449 18.1769 21.4422 20.2449 23.5102C22.4218 25.5782 23.5102 28.2993 23.5102 31.6735C23.5102 35.1565 22.4218 37.9864 20.2449 40.1633C18.068 42.3401 15.2381 43.4286 11.7551 43.4286ZM41.1429 43.4286C37.6599 43.4286 34.8299 42.2313 32.6531 39.8367C30.4762 37.3333 29.3878 34.1225 29.3878 30.2041C29.3878 23.5646 31.4014 17.5782 35.4286 12.2449C39.4558 6.80272 45.6599 2.72109 54.0408 0L56 4.73469C47.5102 7.78231 42.6667 12.8435 41.4694 19.9184C44.8435 20.2449 47.5646 21.4422 49.6327 23.5102C51.8095 25.5782 52.898 28.2993 52.898 31.6735C52.898 35.1565 51.8095 37.9864 49.6327 40.1633C47.4558 42.3401 44.6259 43.4286 41.1429 43.4286Z" fill="#1B313B"/>
</svg>

<svg width="56" height="44" fill="none" xmlns="http://www.w3.org/2000/svg"><path d="M11.755 43.429c-3.483 0-6.313-1.198-8.49-3.592C1.088 37.333 0 34.122 0 30.204c0-6.64 2.014-12.626 6.04-17.96C10.069 6.804 16.273 2.722 24.654 0l1.96 4.735c-8.49 3.047-13.334 8.109-14.531 15.183 3.374.327 6.095 1.524 8.163 3.592 2.177 2.068 3.265 4.79 3.265 8.163 0 3.484-1.088 6.313-3.265 8.49-2.177 2.177-5.007 3.266-8.49 3.266zm29.388 0c-3.483 0-6.313-1.198-8.49-3.592-2.177-2.504-3.265-5.715-3.265-9.633 0-6.64 2.013-12.626 6.04-17.96C39.457 6.804 45.66 2.722 54.042 0L56 4.735c-8.49 3.047-13.333 8.109-14.53 15.183 3.373.327 6.095 1.524 8.163 3.592 2.176 2.068 3.265 4.79 3.265 8.163 0 3.484-1.089 6.313-3.265 8.49-2.177 2.177-5.007 3.266-8.49 3.266z" fill="#1B313B"/></svg>
